X:238
T: ES HATT EIN SCHWAB EIN TOECHTERLEIN
N: E0119A
O: Europa, Mitteleuropa, Deutschland, Torgau
R: erzaehlendes Volks - Lied, Schalk -, Schelmen - Lied, Liebe
M: 6/8
L: 1/8
K: G
D | G2GF2F | G2DD2
D | E2FG2E | E2DD2
D | D2cc2D | D2BB2
G | F2GA2F | A2GG2
D | D2cc2D | D2BB2
G | F2GA2F | A2GG2

